static/src/inline-svgs/logo/guardian-logo.svg

<svg xmlns="http://www.w3.org/2000/svg" width="108" height="35" viewBox="0 0 108 35">
  <g fill="#FFF">
    <polygon points="24.053 18.593 25.893 17.63 25.893 3.065 24.502 3.065 21.099 7.607 20.717 7.607 20.931 2.546 35.682 2.546 35.896 7.607 35.49 7.607 32.158 3.065 30.731 3.065 30.731 17.598 32.584 18.582 32.584 19.073 24.053 19.073"/>
    <path d="M37.6577723 17.9488029L37.6577723 1.81116 36.2278523 1.23585429 36.2278523.935331429 41.4012185 0 41.9468677 0 41.9468677 7.63575429 42.08976 7.51374C43.2335631 6.50687143 44.8774892 5.85969429 46.5217477 5.85969429 48.78576 5.85969429 49.7863385 7.14502286 49.7863385 9.54252L49.7863385 17.9488029 50.9956062 18.6113571 50.9962708 19.1004171 44.2344738 19.1004171 44.2344738 18.6140314 45.4497231 17.9491371 45.4497231 9.51510857C45.4497231 8.19668571 44.8774892 7.66951714 43.8054646 7.66951714 43.0906708 7.66951714 42.47424 7.89482571 42.0183138 8.26320857L42.0183138 17.9718686 43.2096369 18.6337543 43.2096369 19.1004171 36.44352 19.1004171 36.44352 18.6364286 37.6577723 17.9488029zM55.0012431 12.9933514C55.1414769 15.6606171 56.3291446 17.7248314 59.1447877 17.7248314 60.5052554 17.7248314 61.4716062 17.0903571 62.3821292 16.6073143L62.3821292 17.1324771C61.6786338 18.0999 59.8951385 19.4601086 57.4081477 19.4601086 53.0446154 19.4601086 50.8158277 17.0198229 50.8158277 12.79512 50.8158277 8.66535429 53.2559631 6.09336 57.1971323 6.09336 60.9040246 6.09336 62.8277538 7.95733714 62.8277538 12.8663229L62.8277538 12.9930171 55.0012431 12.9930171 55.0012431 12.9933514zM54.9304615 12.3789343L58.7689477 12.1429286C58.7689477 8.83851429 58.2063508 6.6456 57.08016 6.6456 55.88352 6.64526571 54.9304615 9.19285714 54.9304615 12.3789343L54.9304615 12.3789343zM0 25.53642C0 18.5124086 4.62140308 16.0116171 9.77017846 16.0116171 11.9551015 16.0116171 14.0147446 16.3652914 15.1698462 16.8453257L15.2705354 21.7469571 14.7793846 21.7469571 11.7567138 17.0041114C11.2389785 16.7804743 10.74816 16.6928914 9.84395077 16.6928914 7.10606769 16.6928914 5.70771692 19.87362 5.75158154 25.08948 5.80375385 31.33026 6.88176 34.1626629 9.39334154 34.1626629 10.0463262 34.1626629 10.5487754 34.0613743 10.9003569 33.9099429L10.9003569 27.2289086 9.24280615 26.27352 9.24280615 25.7132571 17.2550769 25.7132571 17.2550769 26.3099571 15.6217846 27.2289086 15.6217846 33.8236971C14.2659692 34.3545429 11.9803569 34.8596486 9.56913231 34.8596486 3.71719385 34.8593143 0 32.1308743 0 25.53642M16.9044923 22.2584143L16.9044923 21.85326 22.2941908 20.8975371 22.8847015 20.9470114 22.8847015 31.6277743C22.8847015 32.9154429 23.5001354 33.3109029 24.5336123 33.3109029 25.1978954 33.3109029 25.7997046 33.0565114 26.2808862 32.4812057L26.2808862 22.9019143 24.8041108 22.2584143 24.8041108 21.8375486 30.1938092 20.8818257 30.7354708 20.9309657 30.7354708 33.1738457 32.1873231 33.78726 32.1873231 34.1767029 26.8713969 34.8342429 26.3300677 34.7847686 26.3300677 33.1761857 26.1821908 33.1761857C25.1978954 34.0917943 23.8198154 34.8840514 22.1463138 34.8840514 19.5622892 34.8840514 18.3809354 33.3490114 18.3809354 31.0220486L18.3809354 22.9019143 16.9044923 22.2584143zM51.3245908 20.8748057L51.7675569 20.9239457 51.7662277 24.8778771 51.8891815 24.8778771C52.4647385 21.9789514 53.7348185 20.8975371 55.2853662 20.8975371 55.5316062 20.8975371 55.8021046 20.92194 55.9496492 20.9971543L55.9496492 25.0420114C55.7034092 24.9678 55.2607754 24.9430629 54.8424 24.9430629 53.6118646 24.9430629 52.7073231 25.1667 51.9137723 25.53174L51.9151015 33.3466714 53.14032 34.03062 53.1406523 34.5380657 46.1532185 34.5380657 46.1532185 34.0356343 47.4116677 33.3483429 47.4116677 22.6852971 45.9348923 22.2423686 45.9348923 21.8803371 51.3245908 20.8748057zM65.1864738 21.2080886L65.1864738 17.03754 63.7100308 16.5173914 63.7100308 16.18344 69.1489108 15.1775743 69.6656492 15.25212 69.6656492 33.1684971 71.1670154 33.7167257 71.1670154 34.1783743 65.8019077 34.9064486 65.3838646 34.8569743 65.3838646 33.3744171 65.2605785 33.3744171C64.4733415 34.1660057 63.3900185 34.8843857 61.6925908 34.8843857 58.7639631 34.8843857 56.6225723 32.6316343 56.6225723 28.0271829 56.6225723 23.1740229 59.1079015 20.7875571 62.8736123 20.7875571 63.9559385 20.7872229 64.7680985 20.9854543 65.1864738 21.2080886M65.1788308 32.6791029L65.1788308 21.9692571C64.83456 21.7466229 64.5853292 21.4715057 63.6924185 21.5025943 62.2379077 21.5544086 61.33968 23.7637029 61.33968 27.6999171 61.33968 31.2396686 61.9853538 33.21864 63.9237046 33.1534543 64.4650338 33.1354029 64.9083323 32.9405143 65.1788308 32.6791029M77.3765169 20.8624371L77.8440738 20.9122457 77.8440738 33.3466714 79.0726154 34.03062 79.07328 34.5377314 72.0858462 34.5377314 72.0858462 34.0349657 73.3403077 33.3480086 73.3403077 22.8771771 71.8389415 22.2831514 71.8389415 21.8683029 77.3765169 20.8624371zM77.8689969 17.5052057C77.8689969 18.8176114 76.7614154 19.8077657 75.4813662 19.8077657 74.1528 19.8077657 73.1189908 18.8176114 73.1189908 17.5052057 73.1189908 16.1931343 74.1528 15.1779086 75.4813662 15.1779086 76.7614154 15.1779086 77.8689969 16.1931343 77.8689969 17.5052057L77.8689969 17.5052057zM94.2198646 33.3480086L94.2198646 22.7621829 92.7434215 22.2423686 92.7434215 21.7289057 98.1085292 20.7233743 98.6498585 20.7725143 98.6498585 22.3570286 98.7974031 22.3570286C99.9541662 21.3174 101.677182 20.6488286 103.374609 20.6488286 105.713058 20.6488286 106.746203 21.7626686 106.746203 24.2383886L106.746203 33.3269486 107.999335 34.0299514 107.999335 34.5370629 101.012234 34.5370629 101.012234 34.0346314 102.267028 33.3476743 102.267028 24.4864286C102.267028 23.1245486 101.676849 22.5803314 100.569268 22.5803314 99.8554708 22.5803314 99.2669538 22.7621829 98.7232985 23.1710143L98.7232985 33.3443314 99.9538338 34.03062 99.9538338 34.5377314 92.9637415 34.5377314 92.9637415 34.0353 94.2198646 33.3480086zM86.2873477 26.6950543L86.2873477 24.9196629C86.2873477 22.2443743 85.7074708 21.36888 84.0632123 21.36888 83.8704738 21.36888 83.7009969 21.3932829 83.5072615 21.4176857L80.5819569 25.4060486 80.1715569 25.4060486 80.1715569 21.7342543C81.4283446 21.3451457 82.9994954 20.8828286 85.0787446 20.8828286 88.6570338 20.8828286 90.7359508 21.8800029 90.7359508 24.8955943L90.7359508 33.55326 92.0169969 33.8938971 92.0169969 34.2342C91.5092308 34.5504343 90.4936985 34.8422657 89.3817969 34.8422657 87.6169108 34.8422657 86.7708554 34.2586029 86.3840492 33.2858314L86.2634215 33.2858314C85.5137354 34.3070743 84.4500185 34.8910714 82.7821662 34.8910714 80.6547323 34.8910714 79.2042092 33.5535943 79.2042092 31.2430114 79.2042092 29.0059714 80.5819569 27.7895057 83.3866338 27.2546486L86.2873477 26.6950543zM86.2873477 32.6774314L86.2873477 27.3278571 85.3931077 27.4003971C83.9904369 27.5220771 83.4830031 28.4223086 83.4830031 30.4159886 83.4830031 32.5804886 84.1845046 33.1394143 85.1757785 33.1394143 85.7317292 33.1394143 86.0460923 32.9692629 86.2873477 32.6774314L86.2873477 32.6774314zM39.6027692 26.6950543L39.6027692 24.9196629C39.6027692 22.2443743 39.0228923 21.36888 37.3786338 21.36888 37.1855631 21.36888 37.0164185 21.3932829 36.8226831 21.4176857L33.8973785 25.4060486 33.4866462 25.4060486 33.4866462 21.7342543C34.7437662 21.3451457 36.3149169 20.8828286 38.3938338 20.8828286 41.9721231 20.8828286 44.05104 21.8800029 44.05104 24.8955943L44.05104 33.55326 45.3324185 33.8938971 45.3324185 34.2342C44.8246523 34.5504343 43.80912 34.8422657 42.6972185 34.8422657 40.9326646 34.8422657 40.0862769 34.2586029 39.6994708 33.2858314L39.5785108 33.2858314C38.8291569 34.3070743 37.76544 34.8910714 36.0975877 34.8910714 33.9701538 34.8910714 32.5196308 33.5535943 32.5196308 31.2430114 32.5196308 29.0059714 33.8973785 27.7895057 36.7020554 27.2546486L39.6027692 26.6950543zM39.6027692 32.6774314L39.6027692 27.3278571 38.7085292 27.4003971C37.3058585 27.5220771 36.7984246 28.4223086 36.7984246 30.4159886 36.7984246 32.5804886 37.4999262 33.1394143 38.4908677 33.1394143 39.0464862 33.1394143 39.3611815 32.9692629 39.6027692 32.6774314L39.6027692 32.6774314z"/>
  </g>
</svg>

<svg xmlns="http://www.w3.org/2000/svg" width="108" height="35"><path d="M24 18.6l1.9-1V3.1h-1.4l-3.4 4.5h-.4l.2-5h14.8l.2 5h-.4l-3.3-4.5h-1.5v14.5l1.9 1v.5H24zm13.7-.6V1.7l-1.5-.6V1l5.2-.9h.5v7.6h.2c1.1-1 2.8-1.7 4.4-1.7 2.3 0 3.3 1.2 3.3 3.6V18l1.2.7v.5h-6.8v-.5l1.2-.7V9.5c0-1.3-.5-1.8-1.6-1.8-.7 0-1.3.2-1.8.6V18l1.2.6v.5h-6.8v-.5l1.3-.7zM55 13c.1 2.7 1.3 4.7 4.1 4.7 1.4 0 2.4-.6 3.3-1v.4c-.7 1-2.5 2.4-5 2.4-4.4 0-6.6-2.5-6.6-6.7 0-4.1 2.5-6.7 6.4-6.7 3.7 0 5.6 1.9 5.6 6.8H55zm0-.6l3.8-.3c0-3.3-.6-5.5-1.7-5.5-1.2 0-2.2 2.6-2.2 5.8zM0 25.5c0-7 4.6-9.5 9.8-9.5 2.2 0 4.2.4 5.4.8v5h-.4l-3-4.8c-.6-.2-1-.3-2-.3-2.7 0-4 3.2-4 8.4 0 6.2 1 9 3.6 9 .6 0 1.1 0 1.5-.2v-6.7l-1.7-1v-.5h8v.6l-1.6 1v6.5c-1.3.6-3.6 1-6 1-5.9 0-9.6-2.7-9.6-9.3m16.9-3.2v-.4l5.4-1h.6v10.7c0 1.3.6 1.7 1.6 1.7.7 0 1.3-.2 1.8-.8v-9.6l-1.5-.6v-.5l5.4-1 .5.1v12.3l1.5.6v.4l-5.3.6h-.6v-1.6h-.1a6 6 0 0 1-4 1.7c-2.6 0-3.8-1.6-3.8-3.9v-8l-1.5-.6zm34.4-1.4h.5v4c.7-3 2-4 3.5-4l.6.1v4h-1c-1.3 0-2.2.2-3 .5v7.8l1.2.7v.5h-7V34l1.3-.7V22.7l-1.5-.5V22l5.4-1zm13.9.3V17l-1.5-.5v-.3l5.4-1h.6v18l1.5.5v.5l-5.4.7h-.4v-1.5h-.1a5 5 0 0 1-3.6 1.5c-3 0-5-2.3-5-6.9 0-4.8 2.4-7.2 6.2-7.2 1 0 1.9.2 2.3.4m0 11.5V22c-.4-.3-.6-.5-1.5-.5-1.5 0-2.4 2.3-2.4 6.2 0 3.5.7 5.5 2.6 5.5.6 0 1-.3 1.3-.5m12.2-11.8h.4v12.4l1.3.7v.5h-7V34l1.2-.7V23l-1.5-.6V22l5.6-1zm.5-3.4c0 1.3-1.1 2.3-2.4 2.3-1.3 0-2.4-1-2.4-2.3 0-1.3 1-2.3 2.4-2.3 1.3 0 2.4 1 2.4 2.3zm16.3 15.8V22.8l-1.5-.6v-.5l5.4-1h.5v1.7h.2a7 7 0 0 1 4.6-1.8c2.3 0 3.3 1.2 3.3 3.6v9.1l1.3.7v.5h-7V34l1.3-.7v-8.8c0-1.4-.6-2-1.7-2a3 3 0 0 0-1.9.7v10.1l1.3.7v.5h-7V34l1.2-.7zm-8-6.6v-1.8c0-2.7-.5-3.5-2.1-3.5h-.6l-3 4h-.3v-3.7a15 15 0 0 1 4.9-.8c3.6 0 5.6 1 5.6 4v8.7l1.3.3v.3c-.5.4-1.5.6-2.6.6-1.8 0-2.6-.5-3-1.5h-.1a4 4 0 0 1-3.5 1.6c-2.1 0-3.6-1.3-3.6-3.7 0-2.2 1.4-3.4 4.2-4l2.9-.5zm0 6v-5.4l-.8.1c-1.4.1-2 1-2 3 0 2.2.8 2.7 1.8 2.7.5 0 .8-.1 1-.4zm-46.6-6v-1.8c0-2.7-.6-3.5-2.2-3.5h-.6l-2.9 4h-.4v-3.7a15 15 0 0 1 4.9-.8c3.6 0 5.7 1 5.7 4v8.7l1.2.3v.3c-.5.4-1.5.6-2.6.6-1.8 0-2.6-.5-3-1.5h-.1a4 4 0 0 1-3.5 1.6c-2.1 0-3.6-1.3-3.6-3.7 0-2.2 1.4-3.4 4.2-4l2.9-.5zm0 6v-5.4l-.9.1c-1.4.1-1.9 1-1.9 3 0 2.2.7 2.7 1.7 2.7.5 0 .9-.1 1.1-.4z" fill="#FFF"/></svg>
